!!!OTL: Der lustige Spötter (76), S. 212f
!!!id: T0226
**kern
*clefG2
*k[b-]
*F:
{8c
=1
8f
8f
8f
8g
=2
8a
8f
8f}
=3
{8a
=4
4cc
4e
=5
4f}
8r
=6
{8c
=7
8f
8f
8f
8g
=8
8a
8f
8f}
=9
{8a
=10
4cc
4e
=11
4f}
8r
=12
{8a
=13
8a
8a
8b-
8a
=14
8a
8dd
4dd}
=15
{4ff
8ee
8dd
=16
4cc}
8r
=17
{8a
=18
8a
8a
8a
8a
=19
8a
8cc
4cc}
=20
{8f
8b-
8a
8g
=21
4f}
8r
==
*-
!!!minrhy: 8
!!!meters: 2/4 ]  ZZ[8
!!!cut: Der lustige Spötter (76), S. 212f
!!!reg: Luxemburg
!!!trd: Singendes Volk, Esch-Alzette 1937 posth.
!!!rhy1: X  XXXX  XXX
!!!rhy2: X  X_X_  X_0
!!!key: T0226  08  F 2/4 ]  ZZ[8
!!!mod: HEPTATONIK IONISCH]  AMBITUS[11
!!!kad: 11116551
!!!akz: 13_51_13_51_33_+15_33_11_
!!!fot: 'a__b__a__b__c__d__e__f__
!!!for: 'a__b__a__b__av_c__av_aw_
!!!fok: '^a_^d_^a_^d_/__\__/__^__
!! PHRAS[VORWIEGEND AUFTAKTIG]
!!!fkt: Liebeslieder
!!!bem: StraPen, fff Witry, 14.2.1933
!! THILL, Mathias:
!! PR[50] 2K[0] 2G[0] 3K[6] 3G[6] 4A[9] 4Ü[0] 5A[0] 6K[0] 6G[6]
!! 7K[0] 7G[0] 8A[0] MEHR[0] SI[28] ABS[32] SR[0] SP[28]
!! ST[10] 2k[0] 2g[0] 3k[0] 3g[3] 4d[13] 4ü[0] 5d[0] 6k[0] 6g[6]
!! 7k[0] 7g[0] 8d[0] mehr[0] si[22] dm[+6] sr[0] sp[22]
!! 1F[86] 2F[14] 3F[0] 4F[0] LF[0] 2P[0] 3P[0] 4P[0] TRI[0] DF[2] AB[35]
!! TF[0] U3K[0] U3[0] U4[0] U4Ü[0] U5[15] U6K[0] U6[0] U7K[0] U7[0]
!! N1[30] N2K[0] N2[15] N3K[0] N3[27] N4[6] N4Ü[0] N5[6] N6K[0] N6[0]
!!!n7k: 0] N7[0] O1[0] O2K[0] O2[0] O3K[0] O3[0] HÖ[0
